svg/color/gom.svg

<?xml version="1.0" encoding="UTF-8" ?>
<!DOCTYPE svg PUBLIC "-//W3C//DTD SVG 1.1//EN" "http://www.w3.org/Graphics/SVG/1.1/DTD/svg11.dtd">
<svg width="250pt" height="250pt" viewBox="0 0 250 250" version="1.1" xmlns="http://www.w3.org/2000/svg">
<g id="#ffffffff">
<path fill="#ffffff" opacity="1.00" d=" M 0.00 0.00 L 250.00 0.00 L 250.00 250.00 L 0.00 250.00 L 0.00 0.00 M 41.69 86.15 C 41.67 106.77 41.69 127.39 41.68 148.01 C 56.13 162.43 70.54 176.88 84.99 191.30 C 95.26 191.33 105.54 191.29 115.81 191.32 C 115.88 183.60 115.85 175.88 115.83 168.16 C 103.73 156.13 91.72 144.01 79.60 132.00 C 79.55 122.05 79.53 112.10 79.61 102.16 C 86.74 95.19 93.68 88.03 100.81 81.07 C 110.78 81.22 120.74 81.03 130.71 81.17 C 137.65 88.24 144.71 95.20 151.70 102.22 C 151.68 107.22 151.64 112.22 151.73 117.22 C 164.35 117.21 176.97 117.16 189.60 117.24 C 189.99 106.94 189.68 96.60 189.75 86.29 C 175.16 71.83 160.77 57.17 146.10 42.78 C 125.76 42.83 105.41 42.77 85.06 42.81 C 70.59 57.23 56.17 71.72 41.69 86.15 M 97.89 128.87 C 108.51 139.83 119.44 150.50 130.21 161.32 C 130.13 176.55 130.48 191.78 130.48 207.02 C 142.24 195.61 153.69 183.85 165.34 172.31 C 179.70 157.79 194.38 143.56 208.56 128.87 C 171.67 128.88 134.78 128.88 97.89 128.87 Z" />
</g>
<g id="#d32626ff">
<path fill="#d32626" opacity="1.00" d=" M 41.69 86.15 C 56.17 71.72 70.59 57.23 85.06 42.81 C 105.41 42.77 125.76 42.83 146.10 42.78 C 160.77 57.17 175.16 71.83 189.75 86.29 C 189.68 96.60 189.99 106.94 189.60 117.24 C 176.97 117.16 164.35 117.21 151.73 117.22 C 151.64 112.22 151.68 107.22 151.70 102.22 C 144.71 95.20 137.65 88.24 130.71 81.17 C 120.74 81.03 110.78 81.22 100.81 81.07 C 93.68 88.03 86.74 95.19 79.61 102.16 C 79.53 112.10 79.55 122.05 79.60 132.00 C 91.72 144.01 103.73 156.13 115.83 168.16 C 115.85 175.88 115.88 183.60 115.81 191.32 C 105.54 191.29 95.26 191.33 84.99 191.30 C 70.54 176.88 56.13 162.43 41.68 148.01 C 41.69 127.39 41.67 106.77 41.69 86.15 Z" />
</g>
<g id="#930909ff">
<path fill="#930909" opacity="1.00" d=" M 97.89 128.87 C 134.78 128.88 171.67 128.88 208.56 128.87 C 194.38 143.56 179.70 157.79 165.34 172.31 C 153.69 183.85 142.24 195.61 130.48 207.02 C 130.48 191.78 130.13 176.55 130.21 161.32 C 119.44 150.50 108.51 139.83 97.89 128.87 Z" />
</g>
</svg>

<?xml version="1.0" encoding="utf-8"?>
<!-- Generator: Adobe Illustrator 26.0.3, SVG Export Plug-In . SVG Version: 6.00 Build 0)  -->
<svg version="1.1" id="Layer_1" xmlns="http://www.w3.org/2000/svg" xmlns:xlink="http://www.w3.org/1999/xlink" x="0px" y="0px"
	 viewBox="0 0 250 250" style="enable-background:new 0 0 250 250;" xml:space="preserve">
<style type="text/css">
	.st0{fill:#D32626;}
	.st1{fill:#930909;}
</style>
<g id="_x23_d32626ff">
	<path class="st0" d="M41.7,86.2c14.5-14.4,28.9-28.9,43.4-43.3c20.4,0,40.7,0,61,0c14.7,14.4,29.1,29.1,43.6,43.5
		c-0.1,10.3,0.2,20.7-0.1,30.9c-12.6-0.1-25.2,0-37.9,0c-0.1-5-0.1-10,0-15c-7-7-14.1-14-21-21.1c-10-0.1-19.9,0.1-29.9-0.1
		c-7.1,7-14.1,14.1-21.2,21.1c-0.1,9.9-0.1,19.9,0,29.8c12.1,12,24.1,24.1,36.2,36.2c0,7.7,0,15.4,0,23.2c-10.3,0-20.5,0-30.8,0
		c-14.4-14.4-28.9-28.9-43.3-43.3C41.7,127.4,41.7,106.8,41.7,86.2z"/>
</g>
<g id="_x23_930909ff">
	<path class="st1" d="M97.9,128.9c36.9,0,73.8,0,110.7,0c-14.2,14.7-28.9,28.9-43.2,43.4c-11.6,11.5-23.1,23.3-34.9,34.7
		c0-15.2-0.3-30.5-0.3-45.7C119.4,150.5,108.5,139.8,97.9,128.9z"/>
</g>
</svg>
